Numix/16/status/indicator-keyboard-Be-6.svg

<?xml version="1.0" encoding="UTF-8" standalone="no"?>
<svg
   xmlns:dc="http://purl.org/dc/elements/1.1/"
   xmlns:cc="http://creativecommons.org/ns#"
   xmlns:rdf="http://www.w3.org/1999/02/22-rdf-syntax-ns#"
   xmlns:svg="http://www.w3.org/2000/svg"
   xmlns="http://www.w3.org/2000/svg"
   xmlns:sodipodi="http://sodipodi.sourceforge.net/DTD/sodipodi-0.dtd"
   xmlns:inkscape="http://www.inkscape.org/namespaces/inkscape"
   viewBox="0 0 16 16"
   id="svg2"
   version="1.1"
   inkscape:version="0.91 r13725"
   sodipodi:docname="indicator-keyboard-Be-6.svg">
  <metadata
     id="metadata14">
    <rdf:RDF>
      <cc:Work
         rdf:about="">
        <dc:format>image/svg+xml</dc:format>
        <dc:type
           rdf:resource="http://purl.org/dc/dcmitype/StillImage" />
      </cc:Work>
    </rdf:RDF>
  </metadata>
  <defs
     id="defs12" />
  <sodipodi:namedview
     pagecolor="#ffffff"
     bordercolor="#666666"
     borderopacity="1"
     objecttolerance="10"
     gridtolerance="10"
     guidetolerance="10"
     inkscape:pageopacity="0"
     inkscape:pageshadow="2"
     inkscape:window-width="640"
     inkscape:window-height="480"
     id="namedview10"
     showgrid="false"
     inkscape:zoom="14.75"
     inkscape:cx="8"
     inkscape:cy="8"
     inkscape:window-x="65"
     inkscape:window-y="24"
     inkscape:window-maximized="0"
     inkscape:current-layer="svg2" />
  <path
     style="fill:#ececec;fill-opacity:1"
     d="M 1.5996094 0 C 0.71320937 2.9605947e-16 0 0.71320937 0 1.5996094 L 0 14.400391 C 2.9605947e-16 15.286791 0.71320937 16 1.5996094 16 L 14.400391 16 C 15.286791 16 16 15.286791 16 14.400391 L 16 1.5996094 C 16 0.71320937 15.286791 0 14.400391 0 L 1.5996094 0 z M 3.1796875 4.8046875 C 3.5156875 4.8046875 3.8328125 4.8327187 4.1328125 4.8867188 C 4.4388125 4.9407187 4.7055938 5.03025 4.9335938 5.15625 C 5.1615938 5.28225 5.3426094 5.4501562 5.4746094 5.6601562 C 5.6126094 5.8641563 5.6816406 6.1197812 5.6816406 6.4257812 C 5.6816406 6.7617812 5.5939219 7.0490625 5.4199219 7.2890625 C 5.2519219 7.5230625 5.0243281 7.6853906 4.7363281 7.7753906 C 4.9163281 7.8173906 5.0804688 7.8770781 5.2304688 7.9550781 C 5.3804688 8.0330781 5.5129531 8.1357187 5.6269531 8.2617188 C 5.7409531 8.3817188 5.8286719 8.5309375 5.8886719 8.7109375 C 5.9546719 8.8849375 5.9863281 9.0957969 5.9863281 9.3417969 C 5.9863281 9.9297971 5.7531563 10.379406 5.2851562 10.691406 C 4.8171562 10.997406 4.0932344 11.150391 3.1152344 11.150391 C 3.0132344 11.150391 2.8938594 11.144813 2.7558594 11.132812 C 2.6238594 11.126813 2.4857969 11.113703 2.3417969 11.095703 C 2.2037969 11.083703 2.0713125 11.068781 1.9453125 11.050781 C 1.8193125 11.026781 1.7130469 11.002516 1.6230469 10.978516 L 1.6230469 4.9765625 C 1.7310469 4.9465625 1.8504219 4.9222969 1.9824219 4.9042969 C 2.1144219 4.8802969 2.2487187 4.8616094 2.3867188 4.8496094 C 2.5307188 4.8316094 2.6687813 4.8204531 2.8007812 4.8144531 C 2.9387812 4.8084531 3.0656875 4.8046875 3.1796875 4.8046875 z M 3.1796875 5.3261719 C 2.9576875 5.3261719 2.7673281 5.3337031 2.6113281 5.3457031 C 2.4613281 5.3577031 2.336375 5.372625 2.234375 5.390625 L 2.234375 7.5859375 L 3.421875 7.5859375 C 3.643875 7.5859375 3.8547344 7.5710156 4.0527344 7.5410156 C 4.2507344 7.5050156 4.4204531 7.4453281 4.5644531 7.3613281 C 4.7144531 7.2713281 4.8320156 7.1537656 4.9160156 7.0097656 C 5.0000156 6.8597656 5.0429688 6.6713594 5.0429688 6.4433594 C 5.0429688 6.2393594 4.99625 6.0676875 4.90625 5.9296875 C 4.81625 5.7856875 4.6875313 5.668125 4.5195312 5.578125 C 4.3575313 5.488125 4.1635469 5.426625 3.9355469 5.390625 C 3.7075469 5.348625 3.4556875 5.3261719 3.1796875 5.3261719 z M 9.0195312 6.3359375 C 9.5895313 6.3359375 10.042906 6.5205781 10.378906 6.8925781 C 10.720906 7.2645781 10.890625 7.8373281 10.890625 8.6113281 C 10.890625 8.6593281 10.888813 8.7078594 10.882812 8.7558594 C 10.882812 8.8038594 10.879047 8.848625 10.873047 8.890625 L 7.6054688 8.890625 C 7.6234687 9.460625 7.7652969 9.8990779 8.0292969 10.205078 C 8.2932969 10.511078 8.7130625 10.664062 9.2890625 10.664062 C 9.6070625 10.664062 9.8589217 10.634219 10.044922 10.574219 C 10.230922 10.514219 10.365219 10.463875 10.449219 10.421875 L 10.558594 10.925781 C 10.474594 10.973781 10.314078 11.029703 10.080078 11.095703 C 9.8520779 11.161703 9.5834844 11.195312 9.2714844 11.195312 C 8.8634844 11.195312 8.5145625 11.135625 8.2265625 11.015625 C 7.9385625 10.895625 7.701625 10.727719 7.515625 10.511719 C 7.329625 10.295719 7.1953281 10.040094 7.1113281 9.7460938 C 7.0273281 9.4460938 6.984375 9.119625 6.984375 8.765625 C 6.984375 8.357625 7.04225 8.003125 7.15625 7.703125 C 7.27625 7.397125 7.4292344 7.1415 7.6152344 6.9375 C 7.8072344 6.7335 8.0236719 6.5842813 8.2636719 6.4882812 C 8.5096719 6.3862812 8.7615312 6.3359375 9.0195312 6.3359375 z M 9.0273438 6.8574219 C 8.8173438 6.8574219 8.6289375 6.8984219 8.4609375 6.9824219 C 8.2989375 7.0664219 8.1552969 7.1802188 8.0292969 7.3242188 C 7.9092969 7.4622188 7.8122344 7.6245469 7.7402344 7.8105469 C 7.6742344 7.9965469 7.6350469 8.1924844 7.6230469 8.3964844 L 10.287109 8.3964844 C 10.275109 7.9104844 10.161313 7.5317187 9.9453125 7.2617188 C 9.7293125 6.9917187 9.4233438 6.8574219 9.0273438 6.8574219 z M 2.234375 8.1074219 L 2.234375 10.564453 C 2.324375 10.576453 2.4586719 10.591375 2.6386719 10.609375 C 2.8186719 10.621375 3.0015 10.628906 3.1875 10.628906 C 3.4635 10.628906 3.7302812 10.610219 3.9882812 10.574219 C 4.2522813 10.538219 4.4836406 10.472953 4.6816406 10.376953 C 4.8796406 10.280953 5.0401562 10.148469 5.1601562 9.9804688 C 5.2801563 9.8124687 5.3398438 9.5960312 5.3398438 9.3320312 C 5.3398438 9.0920312 5.2968906 8.8942812 5.2128906 8.7382812 C 5.1288906 8.5762813 5.0095156 8.449375 4.8535156 8.359375 C 4.6975156 8.263375 4.5053437 8.1981094 4.2773438 8.1621094 C 4.0553438 8.1261094 3.8052969 8.1074219 3.5292969 8.1074219 L 2.234375 8.1074219 z M 14.109375 8.8242188 L 14.132812 9.1464844 C 13.894913 9.1620844 13.673503 9.1993125 13.470703 9.2578125 C 13.271803 9.3124125 13.095453 9.4005844 12.939453 9.5214844 C 12.783453 9.6384843 12.652175 9.7893625 12.546875 9.9765625 C 12.441575 10.163763 12.369078 10.394969 12.330078 10.667969 C 12.435378 10.613369 12.562737 10.566344 12.710938 10.527344 C 12.859138 10.484444 13.015894 10.462891 13.183594 10.462891 C 13.401994 10.462891 13.588134 10.498159 13.740234 10.568359 C 13.892334 10.634659 14.015775 10.722838 14.109375 10.835938 C 14.202975 10.949038 14.2696 11.080316 14.3125 11.228516 C 14.3554 11.376716 14.376953 11.533466 14.376953 11.697266 C 14.376953 11.849366 14.353441 12.000244 14.306641 12.152344 C 14.259841 12.304444 14.187338 12.443559 14.085938 12.568359 C 13.988438 12.689259 13.863038 12.789187 13.710938 12.867188 C 13.562737 12.945188 13.384434 12.984375 13.177734 12.984375 C 12.752634 12.984375 12.429331 12.835463 12.207031 12.539062 C 11.988631 12.238762 11.878906 11.821409 11.878906 11.287109 C 11.878906 10.495409 12.068966 9.8958281 12.447266 9.4863281 C 12.829466 9.0768281 13.383975 8.8554188 14.109375 8.8242188 z M 13.148438 10.794922 C 12.969037 10.794922 12.812281 10.816475 12.675781 10.859375 C 12.543181 10.898375 12.417781 10.9454 12.300781 11 C 12.292981 11.0663 12.289062 11.119203 12.289062 11.158203 L 12.289062 11.292969 C 12.289062 11.476269 12.300819 11.650653 12.324219 11.814453 C 12.351519 11.978253 12.398544 12.121294 12.464844 12.246094 C 12.535044 12.370894 12.627134 12.470822 12.740234 12.544922 C 12.853334 12.615122 12.996375 12.650391 13.171875 12.650391 C 13.316175 12.650391 13.439616 12.624919 13.541016 12.574219 C 13.642416 12.519619 13.724709 12.449081 13.787109 12.363281 C 13.849509 12.277481 13.894575 12.177553 13.921875 12.064453 C 13.953075 11.951353 13.96875 11.833784 13.96875 11.708984 C 13.96875 11.396984 13.898212 11.165778 13.757812 11.017578 C 13.621312 10.869378 13.417538 10.794922 13.148438 10.794922 z "
     id="path4" />
</svg>

<svg xmlns="http://www.w3.org/2000/svg" viewBox="0 0 16 16">
 <path d="m 1.6 0 c -0.886 0 -1.6 0.713 -1.6 1.6 l 0 12.801 c 0 0.886 0.713 1.6 1.6 1.6 l 12.801 0 c 0.886 0 1.6 -0.713 1.6 -1.6 l 0 -12.801 c 0 -0.886 -0.713 -1.6 -1.6 -1.6 l -12.801 0 z m 1.58 4.805 c 0.336 0 0.653 0.028 0.953 0.082 c 0.306 0.054 0.573 0.144 0.801 0.27 c 0.228 0.126 0.409 0.294 0.541 0.504 c 0.138 0.204 0.207 0.46 0.207 0.766 c 0 0.336 -0.088 0.623 -0.262 0.863 c -0.168 0.234 -0.396 0.396 -0.684 0.486 c 0.18 0.042 0.344 0.102 0.494 0.18 c 0.15 0.078 0.282 0.181 0.396 0.307 c 0.114 0.12 0.202 0.269 0.262 0.449 c 0.066 0.174 0.098 0.385 0.098 0.631 c 0 0.588 -0.233 1.038 -0.701 1.35 c -0.468 0.306 -1.192 0.459 -2.17 0.459 c -0.102 0 -0.221 -0.006 -0.359 -0.018 c -0.132 -0.006 -0.27 -0.019 -0.414 -0.037 c -0.138 -0.012 -0.27 -0.027 -0.396 -0.045 c -0.126 -0.024 -0.232 -0.048 -0.322 -0.072 l 0 -6 c 0.108 -0.03 0.227 -0.054 0.359 -0.072 c 0.132 -0.024 0.266 -0.043 0.404 -0.055 c 0.144 -0.018 0.282 -0.029 0.414 -0.035 c 0.138 -0.006 0.265 -0.01 0.379 -0.01 z m 0 0.521 c -0.222 0 -0.412 0.008 -0.568 0.02 c -0.15 0.012 -0.275 0.027 -0.377 0.045 l 0 2.195 l 1.188 0 c 0.222 0 0.433 -0.015 0.631 -0.045 c 0.198 -0.036 0.368 -0.096 0.512 -0.18 c 0.15 -0.09 0.268 -0.208 0.352 -0.352 c 0.084 -0.15 0.127 -0.338 0.127 -0.566 c 0 -0.204 -0.047 -0.376 -0.137 -0.514 c -0.09 -0.144 -0.219 -0.262 -0.387 -0.352 c -0.162 -0.09 -0.356 -0.152 -0.584 -0.188 c -0.228 -0.042 -0.48 -0.064 -0.756 -0.064 z m 5.84 1.01 c 0.57 0 1.023 0.185 1.359 0.557 c 0.342 0.372 0.512 0.945 0.512 1.719 c 0 0.048 -0.002 0.097 -0.008 0.145 c 0 0.048 -0.004 0.093 -0.01 0.135 l -3.268 0 c 0.018 0.57 0.16 1.01 0.424 1.314 c 0.264 0.306 0.684 0.459 1.26 0.459 c 0.318 0 0.57 -0.03 0.756 -0.09 c 0.186 -0.06 0.32 -0.11 0.404 -0.152 l 0.109 0.504 c -0.084 0.048 -0.245 0.104 -0.479 0.17 c -0.228 0.066 -0.497 0.1 -0.809 0.1 c -0.408 0 -0.757 -0.06 -1.045 -0.18 c -0.288 -0.12 -0.525 -0.288 -0.711 -0.504 c -0.186 -0.216 -0.32 -0.472 -0.404 -0.766 c -0.084 -0.3 -0.127 -0.626 -0.127 -0.98 c 0 -0.408 0.058 -0.762 0.172 -1.063 c 0.12 -0.306 0.273 -0.562 0.459 -0.766 c 0.192 -0.204 0.408 -0.353 0.648 -0.449 c 0.246 -0.102 0.498 -0.152 0.756 -0.152 z m 0.008 0.521 c -0.21 0 -0.398 0.041 -0.566 0.125 c -0.162 0.084 -0.306 0.198 -0.432 0.342 c -0.12 0.138 -0.217 0.3 -0.289 0.486 c -0.066 0.186 -0.105 0.382 -0.117 0.586 l 2.664 0 c -0.012 -0.486 -0.126 -0.865 -0.342 -1.135 c -0.216 -0.27 -0.522 -0.404 -0.918 -0.404 z m -6.793 1.25 l 0 2.457 c 0.09 0.012 0.224 0.027 0.404 0.045 c 0.18 0.012 0.363 0.02 0.549 0.02 c 0.276 0 0.543 -0.019 0.801 -0.055 c 0.264 -0.036 0.495 -0.101 0.693 -0.197 c 0.198 -0.096 0.359 -0.228 0.479 -0.396 c 0.12 -0.168 0.18 -0.384 0.18 -0.648 c 0 -0.24 -0.043 -0.438 -0.127 -0.594 c -0.084 -0.162 -0.203 -0.289 -0.359 -0.379 c -0.156 -0.096 -0.348 -0.161 -0.576 -0.197 c -0.222 -0.036 -0.472 -0.055 -0.748 -0.055 l -1.295 0 z m 11.875 0.717 l 0.023 0.322 c -0.238 0.016 -0.459 0.053 -0.662 0.111 c -0.199 0.055 -0.375 0.143 -0.531 0.264 c -0.156 0.117 -0.287 0.268 -0.393 0.455 c -0.105 0.187 -0.178 0.418 -0.217 0.691 c 0.105 -0.055 0.233 -0.102 0.381 -0.141 c 0.148 -0.043 0.305 -0.064 0.473 -0.064 c 0.218 0 0.405 0.035 0.557 0.105 c 0.152 0.066 0.276 0.154 0.369 0.268 c 0.094 0.113 0.16 0.244 0.203 0.393 c 0.043 0.148 0.064 0.305 0.064 0.469 c 0 0.152 -0.024 0.303 -0.07 0.455 c -0.047 0.152 -0.119 0.291 -0.221 0.416 c -0.098 0.121 -0.223 0.221 -0.375 0.299 c -0.148 0.078 -0.327 0.117 -0.533 0.117 c -0.425 0 -0.748 -0.149 -0.971 -0.445 c -0.218 -0.3 -0.328 -0.718 -0.328 -1.252 c 0 -0.792 0.19 -1.391 0.568 -1.801 c 0.382 -0.409 0.937 -0.631 1.662 -0.662 z m -0.961 1.971 c -0.179 0 -0.336 0.022 -0.473 0.064 c -0.133 0.039 -0.258 0.086 -0.375 0.141 c -0.008 0.066 -0.012 0.119 -0.012 0.158 l 0 0.135 c 0 0.183 0.012 0.358 0.035 0.521 c 0.027 0.164 0.074 0.307 0.141 0.432 c 0.07 0.125 0.162 0.225 0.275 0.299 c 0.113 0.07 0.256 0.105 0.432 0.105 c 0.144 0 0.268 -0.025 0.369 -0.076 c 0.101 -0.055 0.184 -0.125 0.246 -0.211 c 0.062 -0.086 0.107 -0.186 0.135 -0.299 c 0.031 -0.113 0.047 -0.231 0.047 -0.355 c 0 -0.312 -0.071 -0.543 -0.211 -0.691 c -0.136 -0.148 -0.34 -0.223 -0.609 -0.223 z" style="fill:#ececec;fill-opacity:1"/>
</svg>
